X:1
T:Cidenton, 87.87 D
T:Ira Allan Sankey, 1907
T:Cidenton, 87.87 D
T:Public Domain
C:Ira Allan Sankey, 1907
Z:Public Domain
%%score ( 1 2 ) ( 3 4 )
L:1/8
M:4/4
K:Bb
V:1 treble 
V:2 treble 
V:3 bass 
V:4 bass 
V:1
 [DF]>[^C=E] | [^CG]4- [CG][DF][Ge][Fd] | [Ec]4 [EG]2 [EA][EG] | [EF-]4 =F[EG][EA][Ge] | %4
 [Fd]6 [DF]>[^C=E] | [^CG]4- [CG][DF][Ge][Fd] | [=Ec]4 [EG]2 [^CA][CG] | [DF]4- [DF][DG][EB][EA] | %8
 [DB]6 z2 | [Ec]3 [Ec] [D=B][Ec][Fd][Ec] | [DB]4 [Fd]2 z2 | [EG]3 [EG] [Ge][Gd][Gc][GB] | %12
 B4 A2 [EF]>[EG] | [DF]4- [DF][DB][Ge][Fd] | [=Ec]4 [EG]2 [^CA][CG] | [DF]4- [DF][DG][EB][EA] | %16
 [DB]6 |] %17
V:2
 x2 | x8 | x8 | x4 =F x3 | x8 | x8 | x8 | x8 | x8 | x8 | x8 | x8 | F6 x2 | x8 | x8 | x8 | x6 |] %17
V:3
 [B,,B,]>[B,,G,] | [B,,=E,]4- [B,,E,][B,,F,][G,,=B,][G,,B,] | [C,C]4 [C,C]2 [F,C][F,B,] | %3
 [F,A,]4- [F,A,][F,B,][F,C][F,A,] | [B,,B,]6 [B,,B,]>[B,,G,] | %5
 [B,,=E,]4- [B,,E,][B,,F,][B,,B,][B,,B,] | [C,B,]4 [C,B,]2 [=E,B,][E,B,] | %7
 [F,B,]4- [F,B,][F,B,][F,C][F,,F,] | [B,,F,]6 z2 | z [F,A,][F,A,][F,A,] [F,^G,][F,A,][F,A,][F,A,] | %10
 [B,,F,B,]4 [B,,B,]2 z2 | z [E,B,][E,B,][E,B,] [C,C][D,=B,][E,C][=E,^C] | D4 C2 z2 | %13
 z [B,,B,][B,,B,][B,,B,] [B,,B,] z3 | z [C,B,][C,B,][C,B,] [C,B,][C,B,][=E,B,][E,B,] | %15
 [F,B,]4- [F,B,][F,B,][F,C][F,,F,] | [B,,F,]6 |] %17
V:4
 x2 | x8 | x8 | x8 | x8 | x8 | x8 | x8 | x8 | x8 | x8 | x8 | F,6 x2 | x8 | x8 | x8 | x6 |] %17

